optimized/24/outline/backward.svg

<svg xmlns="http://www.w3.org/2000/svg" fill="none" viewBox="0 0 24 24">
  <path stroke-linecap="round" stroke-linejoin="round" d="M21 16.811C21 17.6748 20.0668 18.2164 19.3168 17.7878L12.2094 13.7264C11.4536 13.2945 11.4536 12.2047 12.2094 11.7728L19.3168 7.71141C20.0668 7.28285 21 7.82439 21 8.68819V16.811Z"/>
  <path stroke-linecap="round" stroke-linejoin="round" d="M11.25 16.811C11.25 17.6748 10.3168 18.2164 9.56684 17.7878L2.45935 13.7264C1.70356 13.2945 1.70356 12.2047 2.45935 11.7728L9.56684 7.71141C10.3168 7.28285 11.25 7.82439 11.25 8.68819L11.25 16.811Z"/>
</svg>

<svg xmlns="http://www.w3.org/2000/svg" fill="none" viewBox="0 0 24 24" stroke-width="1.5" stroke="currentColor" aria-hidden="true">
  <path stroke-linecap="round" stroke-linejoin="round" d="M21 16.811c0 .864-.933 1.405-1.683.977l-7.108-4.062a1.125 1.125 0 010-1.953l7.108-4.062A1.125 1.125 0 0121 8.688v8.123zM11.25 16.811c0 .864-.933 1.405-1.683.977l-7.108-4.062a1.125 1.125 0 010-1.953L9.567 7.71a1.125 1.125 0 011.683.977v8.123z"/>
</svg>
